X: 5
T: Bo Mhin Na Toitean
R: strathspey
M: 4/4
L: 1/8
K: Edor
|:E2B2 B2AF | A2 Bc dB e2 | E2B2 B2AF | edBA FBAF |
E2B2 B2AF | A2 Bc dB e2 | dBAF BdAF | F2 E2 EF =GF :||
|:E2 e2 e2 dB | A2 Bc dB e2 | E2e2 e2dB | edBA FBAF|
E2e2 e2dB | A2 Bc dB e2 | dBAF BdAF |F2 E2 EF =GF :||


Tune 5252	Setting 25084

